X:1
T:Who loves a life - Mundy
T:#
%%score { 1 | 2 } 3 4 5
L:1/8
Q:1/4=120
M:4/2
K:F
V:1 treble nm="Soprano I" snm="S"
V:2 treble 
V:3 treble nm="Alto" snm="A"
V:4 treble-8 nm="Tenor" snm="T"
V:5 bass nm="Bass" snm="B"
V:1
"^Who loves a life""^John Mundy\n(c. 1555-1630)" z16 | z16 | z4 z4 d4 d2 d2 | %3
w: ||Who loves a|
[M:4/2] ^c4 A4 d3 e f2 d2 | e4 (d4 ^c2) d4 c2 | d8 z4 z4 | z4 z4 a4 ^f2 f2 | g4 e2 f4 a4 g2- | %8
w: life de- void of qui- et|rest, of * qui- et|rest,|who loves a|life de- void of qui\-|
 g2 f2 e4 z4 z4 | z2 c4 f4 e2 d4- | d2 ^c2 d4 =c2 B4 A2 | G2 A4 =B2 c4 z4 | z4 z2 e2 ^f3 f g4 | %13
w: * et rest,|And seeks con- tent|* in dens of cru- el|care, cru- el care;|Who most tri- umphs,|
 e4 e2 d4 c4 =B2 | c4 c4 e6 d2 | c4 c6 (=BA B4) | c8 z4 z4 | d4 g6 f2 e2 d2 | c6 B2 A4 (F2 G2 | %19
w: when most he is op-|prest, And weens him|free, weens him * *|free,|and weens him free, when|fast he is in *|
 A8) ^F4 A4 | A4 G4 A8 | z4 d4 f4 e4 | d4 d8 ^c4 | d8 e4 a4- | a2 (g2 f4) e4 d4 | ^c4 a6 g4 g2 | %26
w: * snare; Who|in the sweet,|who in the|sweet, in the|sweet doth find|* the * sour- est|tast: His life is|
 f6 e4 d4 c2 | c2 (A4 ^G2) A8 | z4 z2 a4 g4 f2 | e8 ^c8 | =c4 g6 f2 e2 (d2 | c3 =B A2 G2) ^F4 F4 | %32
w: love, his life is|love, is * love,|his life is|* love,|his food is vain re\-|* * * * past, re-|
 G4 z2 d2 =B2 G2 A2 ^F2 | G2 d4 ^c2 d4 z2 a2 | ^f2 d2 e2 ^c2 d2 a2 g2 e2 | ^f4 (a6 ga g2 =f2) | %36
w: past, his food is vain re-|past, vain re- past, his|food is vain re- past, is vain re-|past, his * * * *|
 e8[Q:1/4=116] (e6[Q:1/4=114] d2 | %37
w: food is *|
[Q:1/4=114] ^c2[Q:1/4=113] A2)[Q:1/4=111] a6[Q:1/4=109] g2[Q:1/4=108] e4 |[Q:1/4=108] ^f16 |] %39
w: * * vain re\- *|past|
V:2
 d4 d2 d2 ^c4 A4 | d3 e f2 d2 e6 c2 | d6 (c2 B2) A4 G2 |[M:4/2] A16 | z16 | a4 ^f2 f2 g4 e4 | %6
w: Who loves a life de-|void of qui- et rest, de-|void of * qui- et|rest,||who loves a life de-|
 d6 d2 (^c4 d4) | =B4 =c6 f4 e2- | ed d4 ^c2 d8 | z16 | z16 | c4 f4 e4 d2 c2 | %12
w: void of qui\- *|et rest, de- void|* of qui- et rest,|||And seeks con- tent in|
 c2 B2 A4 z2 A2 =B2 B2 | c4 c2 f3 f e2 d4 | e8 z4 z4 | z4 z4 d4 g4- | g2 f2 e2 d2 c4 d4 | %17
w: dens of care; Who most tri-|umphs, when most he is op-|prest,|And weens|* him free, when fast he|
 =B4 B4 c6 g2 | f4 e8 d4- | d4 ^c4 d8 | z4 d4 f4 e4 | d8 z4 z4 | z4 d4 a6 g2 | (f2 e2) d4 ^c8 | %24
w: is in snare, when|fast he is|* in snare;|Who in the|sweet|doth find the|sour\- * est tast,|
 d8 e4 (f2 d2) | e8 z4 z4 | a6 g4 f2 e4 | e2 d4 (d2 ^c8) | e6 d2 c2 =B2 c2 A2 | %29
w: the sour- est *|tast:|His life is love,|his life is *|love, his life is love, his|
 ^G2 (A2- A2 G2) A8 | (e4 d4) ^c6 d2 | e4 ^c4 d4 z2 d2 | =B2 G2 A2 ^F2 G2 B2 e2 d2 | %33
w: life is * * love,|his * food is|vain re- past, his|food is vain re- past, is vain re-|
 d4 z2 a2 ^f2 d2 e2 ^c2 | d4 z2 a2 ^f2 d2 e2 ^c2 | d4 d4 A8 | z4 a6 ga g2 f2 | %37
w: past, his food is vain re-|past, his food is vain re-|past, re- past,|his * * * *|
 e4 A2 =B2 (^c2 d4 c2) | d16 |] %39
w: food is vain re\- * *|past.|
V:3
 z4 z4 A4 A2 A2 | F4 D4 A3 B c2 (A2 | B4) A2 G2 (F2 E2) D4 |[M:4/2] E4 E4 F6 A2 | B4 B4 A4 A4 | %5
w: Who loves a|life de- void of qui- et|* rest, who loves * a|life de- void of|qui- et rest, who|
 ^F2 F2 A2 d2 c2 =B2 A4- | A4 G4 A4 A4 | G4 G2 F4 F2 F2 G2- | G2 A4 A2 ^F6 A2 | %9
w: loves a life de- void of qui\-|* et rest, who|loves a life de- void of|* qui- et rest, And|
 D2 A2 G2 A2 =B2 c2 B2 A2 | A4 F6 G4 C2 | E2 C2 D4 E4 z2 A2- | A2 G2 E4 z2 A2 G3 G | %13
w: seeks con- tent in dens of cru- el|care, and seeks con-|tent in dens of cru\-|* el care; Who most tri-|
 G4 G2 B4 G2 A2 G2 | G8 C4 G4- | G4 ^F4 G8 | E8 A4 ^F4 | G12 G4 | A4 G4 E2 C2 D4 | E8 D4 F4 | %20
w: umphs, when most he is op-|prest, And weens|* him free,|when fast he|is in|snare, when fast he is|in snare; Who|
 E4 D4 C4 E4 | A4 (G4 A4) A4- | A2 (GF G4 F4) E4 | F4 A8 (E4 | F4) A6 (G2 F4) | E8 D2 D4 ^C2 | %26
w: in the sweet doth|find the * sour\-|* est * * * tast,|doth find the|* sour- est *|tast: His life is|
 D4 F2 c4 A2 A4 | G2 F2 D4 E8 | z4 z2 D2 E4 A,4 | E8 E6 A2 | G4 B4 (A4 G2) (F2 | E8) D4 D4 | %32
w: love, his life is love,|his life is love,|his life is|* love, his|food is vain * re\-|* past, re-|
 D8 z2 d2 c2 A2 | B4 A8 A4- | A2 d2 B2 A2 A2 (F2 E4) | D8 z4 D4 | A4 (E4 A8) | (A6 GF E2 D2) E4 | %38
w: past, his food is|vain re- past,|* his food is vain re\- *|past, his|food is *|vain * * * * re-|
 D16 |] %39
w: past.|
V:4
 z4 z4 z4 z4 | d4 d2 d2 c4 A4 | d3 (e f2 e2 d2) c2 B4 |[M:4/2][K:treble-8] A4 (c4 A2) d3 (e f2) | %4
w: |Who loves a life de-|void of * * * qui- et|rest, de * void of *|
 g8 e8 | d8 e4 ^c2 c2 | d6 d2 e4 d4 | d4 c4 A2 (d2 c4) | d4 e4 d4 d4 | f4 e2 d4 c2 g2 f2 | %10
w: qui- et|rest, who loves a|life de- void of|qui- et rest, of *|qui- et rest, And|seeks con- tent in dens of|
 e4 d4 f2 B4 c2- | c2 A2 F4 G2 g4 c2 | (f2 d2) ^c4 d4 d4 | c3 c c2 d2 d2 e2 f2 d2 | c8 c4 e4- | %15
w: cru- el care, of cru\-|* el care, in dens of|cru\- * el care; Who|most tri- umphs, when most he is op-|prest, And weens|
 e2 (d2 c4 d8) | c8 A4 d4- | d2 c2 =B2 A2 G4 c4 | A4 B4 c2 A2 d4 | c2 B2 A4 A4 d4 | c4 B4 A4 c4 | %21
w: * him * *|free, and weens|* him free, when fast he|is in snare, when fast|he is in snare; Who|in the sweet doth|
 A4 B4 A4 c4 | d8 z4 A4 | d4 (f4 e8) | A12 A4 | A4 c4 A2 (=B2 G4) | A4 d2 e2 c2 d2 A4 | %27
w: find the sour- est|tast, doth|find the *|sour- est|tast: His life is *|love, his life is love, his|
 c2 (d2 =B4) A8 | z4 z4 e6 d2- | d2 (c2 =B4) A2 B2 ^c2 d2 | (e2 f2) g4 e4 A4- | A4 A4 A4 A4 | %32
w: life is * love,|his life|* is * love, his food is|vain * re- past, vain|* re- past, his|
 G2 (B2 A2) d4 (=B2 A4) | G2 g2 e4 d2 f2 e4 | d2 f2 e4 d4 =B2 A2 | A4 (f6 ef e2 d2) | %36
w: food is * vain re\- *|past, his food is vain re-|past, his food is vain re-|past, his * * * *|
 ^c4 c4 c6 (d2 | e8 A8) | A16 |] %39
w: food is vain re\-||past.|
V:5
 z16 | z16 | z16 |[M:4/2] A,4 A,2 A,2 F,4 D,4 | G,3 A, B,2 (G,2 A,8) | D,8 z4 A,4 | %6
w: |||Who loves a life de-|void of qui- et *|rest, who|
 ^F,2 F,2 G,2 B,2 A,4 D,4 | G,4 C,2 F,4 D,2 F,2 C,2 | G,2 (D,2 A,4) D,8 | z16 | %10
w: loves a life de- void of|qui- et rest, de- void of|qui- et * rest,||
 A,4 B,4 A,2 G,4 F,2 | E,2 F,2 D,3 D, C,4 (G,2 A,2) | F,2 G,2 A,2 A,2 D,4 G,4 | %13
w: And seeks con- tent in|dens of cru- el care, of *|cru- el care; Who most tri-|
 C,4 C2 B,4 C2 F,2 G,2 | C,4 C,4 C6 B,2 | A,8 G,6 G,2 | C,8 z4 D,4 | G,6 F,2 E,2 (D,2 C,4) | %18
w: umphs, when most he is op-|prest, And weens him|free, weens him|free, and|weens him free, when *|
 F,4 G,4 A,4 (B,4 | A,8) D,8 | z4 z4 z4 A,4 | ^F,4 G,4 D,4 A,4 | B,6 B,2 A,8 | z4 D,4 A,6 (G,2 | %24
w: fast he is in|* snare;|Who|in the sweet, who|in the sweet|doth find the|
 F,2 E,2 D,4) ^C,4 D,4 | A,,4 A,4 F,2 (G,2 E,4) | D,4 z4 z4 z4 | z4 z4 z4 A,4- | %28
w: * * * sour- est|tast: His life is *|love,|his|
 A,2 (G,4 F,2 E,4) (C,2 D,2) | E,8 A,,4 A,4 | C4 G,4 A,8 | A,,8 D,8 | %32
w: * life * * is *|* love, his|food is vain|re- past,|
 z2 G,2 ^F,2 D,2 G,4 (C,2 D,2) | G,4 A,4 D,4 A,,4 | D,4 (G,2 A,2) D,2 F,2 G,2 A,2 | D,8 D,8 | %36
w: his food is vain re\- *|past, his food is|vain re\- * past, is vain re-|past, is|
 A,,16 | A,,16 | D,16 |] %39
w: vain|re-|past.|

